!!!COM: Felix Mendelssohn
!!!CNT: Deutsch
!!!TXO: Deutsch
!!!OTL: Minnelied im Mai
!!!LYR: F. Robert
!!!OPS: Op. 8
!!!ONM: No. 1
!!!ENC: Daniel Alt & Leigh VanHandel
!!!YOR: Sa2mmtliche Lieder fu2r eine Singstimme 
!!!YOR: Neu revidirt von Dr. L. Benda, Ausgabe fu2r mittlere Stimme
!!!YOR: Braunschweig. Henry Litolff's Verlag. Boston and New York: Arthur P. Schmidt.
!!!ODT: 1826/
**kern	**silbe
*staff1	*
=1-	=1
*clefG2	*
*k[f#c#]	*
*M6/8	*
{4f#	{Hol-
8f#	-der
4g	klingt
8f#	der
=2	=2
4b	Vo-
8a	-gel-
4.e	-sang,
=3	=3
4e	wenn
8f#	die
4g	En-
8b	-gel-
=4	=4
4.a	-rei-
4.g}	-ne,}
=5	=5
{4f#	{die
8f#	mein
4g	jun-
8f#	-ges
=6	=6
4b	Herz
8a	bez-
4.e	-wang,
=7	=7
8e	wan-
8f#	|
8g#	-delt
8a	durch
8cc#	|
8b	die
=8	=8
4.g#	Hai-
8a}	-ne.}
8r	.
8r	.
=9	=9
{4b	{Ro2-
8a	-ther
4g	blu2-
8b	-het
=10	=10
4ee	Thal
8dd	und
4.cc#	Au’,
=11	=11
4b	gru2-
8a	-ner
4g	wird
8a	der
=12	=12
4cc#	Ra-
8b	|
4a	-sen,
8g}	|}
=13	=13
{4f#	{wo
8f#	die
4g	Fin-
8f#	-ger
=14	=14
4b	mei-
8a	-ner
4.e	Faru
=15	=15
4e	Mai-
8f#	-en-
4g	-blu-
8g#	-men
=16	=16
2.a	la-
=17	=17
4.d}	-sen.}
4r	.
8r	.
==	==
*-	*-

